src/assets/icons/ico-pen-mode.svg

<svg width="24" height="24" viewBox="0 0 24 24" fill="none" xmlns="http://www.w3.org/2000/svg">
<g clip-path="url(#clip0_2487_912)">
<path d="M14.286 15.0998L14.286 15.0998C14.319 15.0724 14.3508 15.0434 14.3813 15.0129L22.4329 6.96137C23.9224 5.4718 23.9224 3.05673 22.4329 1.56717C20.9433 0.0776093 18.5282 0.0776093 17.0386 1.56717L8.98714 9.61868L8.98713 9.61869C8.9566 9.64924 8.92759 9.68104 8.90018 9.714L8.90017 9.71402C8.87346 9.74617 8.84825 9.77941 8.82462 9.81361C8.6878 10.0117 8.6037 10.2423 8.58151 10.4834C8.57757 10.5261 8.57559 10.5691 8.57559 10.6123V14.3204C8.57559 14.3594 8.57762 14.398 8.58156 14.436L8.58156 14.436C8.63542 14.9535 9.04657 15.3646 9.56405 15.4185L9.56407 15.4185C9.60205 15.4224 9.64058 15.4244 9.67958 15.4244H13.3878C13.431 15.4244 13.474 15.4224 13.5166 15.4185L13.5166 15.4185C13.7577 15.3963 13.9883 15.3122 14.1864 15.1754L14.158 15.1343L14.1864 15.1754C14.2206 15.1518 14.2539 15.1266 14.286 15.0998ZM10.1813 13.8187V11.2363L12.7637 13.8187H10.1813ZM21.2974 5.82596L14.1696 12.9538L11.0462 9.83043L18.1741 2.70259C19.0365 1.84008 20.435 1.84008 21.2974 2.70258C22.1599 3.56507 22.1599 4.96346 21.2974 5.82596ZM6.71623 15.9715C6.71623 15.5281 6.35678 15.1686 5.91338 15.1686H3.13499C1.65211 15.1686 0.45 16.3706 0.45 17.8535C0.45 19.3365 1.65211 20.5386 3.13499 20.5386H17.8157C18.2039 20.5386 18.5186 20.8533 18.5186 21.2414C18.5186 21.6296 18.2039 21.9443 17.8157 21.9443H11.04C10.5966 21.9443 10.2371 22.3037 10.2371 22.7472C10.2371 23.1906 10.5966 23.55 11.04 23.55H17.8157C19.0906 23.55 20.1243 22.5165 20.1243 21.2414C20.1243 19.9664 19.0906 18.9329 17.8157 18.9329H3.13499C2.53892 18.9329 2.05572 18.4496 2.05572 17.8535C2.05572 17.2575 2.53891 16.7743 3.13499 16.7743H5.91338C6.35678 16.7743 6.71623 16.4149 6.71623 15.9715Z" fill="#353B45" stroke="#353B45" stroke-width="0.1"/>
</g>
<defs>
<clipPath id="clip0_2487_912">
<rect width="24" height="24" fill="white"/>
</clipPath>
</defs>
</svg>

<svg width="24" height="24" fill="none" xmlns="http://www.w3.org/2000/svg"><g clip-path="url(#a)"><path d="M14.286 15.0998a1.3956 1.3956 0 0 0 .0953-.0869l8.0516-8.0515c1.4895-1.4896 1.4895-3.9047 0-5.3942-1.4896-1.4896-3.9047-1.4896-5.3943 0L8.9871 9.6187a1.4112 1.4112 0 0 0-.1625.195 1.4053 1.4053 0 0 0-.249.7986v3.7081a1.1045 1.1045 0 0 0 .9885 1.0981c.038.0039.0765.0059.1155.0059h3.7082a1.4057 1.4057 0 0 0 .7986-.249l-.0284-.0411.0284.0411a1.3656 1.3656 0 0 0 .0996-.0756Zm-4.1047-1.2811v-2.5824l2.5824 2.5824h-2.5824ZM21.2974 5.826l-7.1278 7.1278-3.1234-3.1234 7.1279-7.1278c.8624-.8625 2.2609-.8625 3.1233 0 .8625.8625.8625 2.2609 0 3.1234ZM6.7162 15.9715a.8029.8029 0 0 0-.8028-.8029H3.135c-1.4829 0-2.685 1.202-2.685 2.6849 0 1.483 1.2021 2.6851 2.685 2.6851h14.6807a.7029.7029 0 1 1 0 1.4057H11.04a.8029.8029 0 1 0 0 1.6057h6.7757c1.2749 0 2.3086-1.0335 2.3086-2.3086 0-1.275-1.0337-2.3085-2.3086-2.3085H3.135c-.596 0-1.0793-.4833-1.0793-1.0794 0-.596.4832-1.0792 1.0793-1.0792h2.7784a.8028.8028 0 0 0 .8028-.8028Z" fill="#353B45" stroke="#353B45" stroke-width=".1"/></g><defs><clipPath id="a"><path fill="#fff" d="M0 0h24v24H0z"/></clipPath></defs></svg>
